!!!OTL: "Die Wacht" IN DER FINSTERN MITTERNACHT STEHT DER RITTER AUF DER WACHT
!!!ARE: Europa, Mitteleuropa, Deutschland
!!!SCT: Z1023
!!!YEM: Copyright 1995, estate of Helmut Schaffrath.
**kern
*ICvox
*Ivox
*M2/4
*k[f#c#]
*D:
{4a
4g
=1
8a
16b
16ccn
4dd
=2
4ccn
8a
8b
=3
4a
4r}
=4
{4a
8a
8fn
=5
8d
16e
16fn
8g
8a
=6
4fn
8d
8e
=7
4d
4r}
=8
{4fn
8e
8fn
=9
4g
4a
=10
4a
8d
8e
=11
4fn
4e
=12
4d
4cn}
=13
{8e
8fn
4g
=14
4a
8d
8e
=15
4fn
4e
=16
4d
4r}
==
!!!AGN: Romanze, Ballade, Sage (getreuer Eckart)
!!!ONB: ESAC (Essen Associative Code) Database: ZUCCAL
!!!AMT: simple duple
!!!AIN: vox
!!!EED: Helmut Schaffrath
!!!EEV: 1.0
*-
